X: 10052
M: 6/8
L: 1/8
K: G
d2d dge | (d3 B2)d | dcc ABc | (e3 d2) B/c/ |\
d2d dge | (d3 B2d) | c2c A2A | G3 G2 :|
|: B |\
d2d dge | d3 g2g | a2a f2f | g2z z2 :|


